Point/img/cross.svg

<svg width="37" height="37" viewBox="0 0 37 37" fill="none" xmlns="http://www.w3.org/2000/svg">
<path d="M18.9412 18.9411L1.9706 1.97056M1.9706 35.9117L18.9412 18.9411L1.9706 35.9117ZM18.9412 18.9411L35.9117 1.97056L18.9412 18.9411ZM18.9412 18.9411L35.9117 35.9117L18.9412 18.9411Z" stroke="#00325A" stroke-width="2" stroke-linecap="round"/>
</svg>

<svg width="37" height="37" fill="none" xmlns="http://www.w3.org/2000/svg"><path d="M18.941 18.941L1.971 1.971m0 33.94l16.97-16.97-16.97 16.97zm16.97-16.97l16.97-16.97-16.97 16.97zm0 0l16.97 16.97-16.97-16.97z" stroke="#00325A" stroke-width="2" stroke-linecap="round"/></svg>
